**kern	**silbe	**kern	**silbe
*ICvox	*	*ICvox	*
=1	=1	=1	=1
*d:	*	*d:	*
*M4/4	*	*M4/4	*
*clefC3	*	*clefC3	*
1r	.	1r	.
=2	=2	=2	=2
1r	.	1r	.
=3	=3	=3	=3
4r	.	1r	.
8B	Ba-	.	.
8A	-by,	.	.
8c	I	.	.
4d	feel	.	.
[8f	good	.	.
=4	=4	=4	=4
8f]	_	1r	.
8r	,	.	.
4r	.	.	.
2r	.	.	.
=5	=5	=5	=5
4r	.	1r	.
8d	from	.	.
8d	the	.	.
8f	mo-	.	.
8d	-ment	.	.
8d	I	.	.
[8d	rise	.	.
=6	=6	=6	=6
4d]	_	1r	.
4r	!	.	.
2r	.	.	.
=7	=7	=7	=7
4r	.	1r	.
cq	_	.	.
4d	Feel	.	.
cq	_	.	.
4d	good	.	.
dq	_	.	.
4A	from	.	.
=8	=8	=8	=8
1r	.	2c f	Mor-
.	.	2d g	-ning
=9	=9	=9	=9
4r	.	2d f	_
8d	'till	.	.
8d	the	.	.
8e	end	2c# e	!
8d	of	.	.
8d	the	.	.
cq	_	.	.
[8d	day	.	.
=10	=10	=10	=10
4d]	_	1r	.
4r	!	.	.
2r	.	.	.
=11	=11	=11	=11
4r	.	4r	.
8d	'Till	8c	'Till
8d	the	8d	the
8e	end	8e	end
8d	of	8d	of
8d	the	8d	the
cq	_	8c	day
[8d	day	.	.
=12	=12	=12	=12
4d]	_	4d	_
4r	!	4r	!
2r	.	2r	.
=13	=13	=13	=13
2r	.	1r	.
4d	Yeah	.	.
4r	!	.	.
=14	=14	=14	=14
8d	You	1r	.
4d	and	.	.
[8d	me	.	.
4d]	_	.	.
4r	,	.	.
=15	=15	=15	=15
2r	.	1r	.
8f	we	.	.
8d	live	.	.
8c	this	.	.
8c	life	.	.
=16	=16	=16	=16
4d	_	1r	.
4d	uh	.	.
2r	!	.	.
=17	=17	=17	=17
2r	.	1r	.
4r	.	.	.
8r	.	.	.
8c	From	.	.
=18	=18	=18	=18
cq	_	1r	.
4d	when	.	.
4d	we	.	.
4d	get	.	.
4d	up	.	.
=19	=19	=19	=19
4r	,	1r	.
8c	'till	.	.
8c	we	.	.
8d	go	.	.
8c	sleep	.	.
8G	at	.	.
Gq	_	.	.
[8A	night	.	.
=20	=20	=20	=20
1A]	_	[1A	Night
=21	=21	=21	=21
[2c#	_	2A_	_
8c#]	_	8A]	_
8r	!	8r	!
4r	.	4r	.
=22	=22	=22	=22
4d	You	1r	.
4d	and	.	.
8d	me,	.	.
4d	we're	.	.
dq	_	.	.
[8e	free	.	.
=23	=23	=23	=23
4.e]	_	1r	.
8r	!	.	.
2r	.	.	.
=24	=24	=24	=24
4f	We	1r	.
4f	do	.	.
4f	as	.	.
4f	we	.	.
=25	=25	=25	=25
2e	please,	1r	.
cq	_	.	.
16e	yeah	.	.
16d	_	.	.
8c	,	.	.
4c	from	.	.
=26	=26	=26	=26
1r	.	2c f	Mor-
.	.	2d g	-ning
=27	=27	=27	=27
4r	.	2d f	_
8d	'till	.	.
8d	the	.	.
8e	end	2c# e	!
8d	of	.	.
8d	the	.	.
cq	_	.	.
[8d	day	.	.
=28	=28	=28	=28
4d]	_	1r	.
4r	!	.	.
2r	.	.	.
=29	=29	=29	=29
4r	.	4r	.
8d	'Till	8c	'Till
8d	the	8d	the
8f	end	8f	end
8d	of	8d	of
8d	the	8d	the
cq	_	8c	day
[8d	day	.	.
=30	=30	=30	=30
4d]	_	4d	_
4r	!	4r	!
2r	.	2r	.
=31	=31	=31	=31
2r	.	1r	.
16d	Yeah	.	.
16A	_	.	.
8r	!	.	.
4r	.	.	.
=32	=32	=32	=32
8d	I	1r	.
8d	get	.	.
8d	up	.	.
8r	,	.	.
2r	.	.	.
=33	=33	=33	=33
4r	.	1r	.
8r	.	.	.
8c	and	.	.
8f	I	.	.
8d	see	.	.
8c	the	.	.
[8d	sun	.	.
=34	=34	=34	=34
8d]	_	1r	.
8d	up	.	.
4r	!	.	.
2r	.	.	.
=35	=35	=35	=35
2r	.	1r	.
4r	.	.	.
8r	.	.	.
8c	And	.	.
=36	=36	=36	=36
cq	_	1r	.
4d	I	.	.
cq	_	.	.
4d	feel	.	.
cq	_	.	.
4d	good,	.	.
cq	_	.	.
8d	yeah	.	.
8c	_	.	.
=37	=37	=37	=37
4r	,	1r	.
8c	cuz	.	.
8c	my	.	.
8d	life	.	.
8c	has	.	.
8G	be-	.	.
Gq	_	.	.
[8A	-gun	.	.
=38	=38	=38	=38
1A]	_	[1A	Gun
=39	=39	=39	=39
2.c#	_	2.A]	_
4r	!	4r	!
=40	=40	=40	=40
4d	You	1f	Ah
4d	and	.	.
8d	me,	.	.
4d	we're	.	.
dq	_	.	.
[8e	free	.	.
=41	=41	=41	=41
4.e]	_	1e	_
8r	!	.	.
2r	.	.	.
=42	=42	=42	=42
4f	We	1f	_
4f	do	.	.
4f	as	.	.
4f	we	.	.
=43	=43	=43	=43
4.e	please,	[2e [g	_
8d	y-	.	.
16e	-yeah	8e] g]	_
16d	_	.	.
8c	,	8r	!
8d	from	4r	.
8c	_	.	.
=44	=44	=44	=44
1r	.	2c f	Mor-
.	.	2d g	-ning
=45	=45	=45	=45
4r	.	2d f	_
8d	'Till	.	.
8d	the	.	.
8e	end	2c# e	!
8d	of	.	.
8d	the	.	.
cq	_	.	.
[8d	day	.	.
=46	=46	=46	=46
4d]	_	1r	.
4r	!	.	.
2r	.	.	.
=47	=47	=47	=47
4r	.	1r	.
8d	'Till	.	.
8d	the	.	.
8f	end	.	.
8d	of	.	.
8d	the	.	.
cq	_	.	.
[8d	day	.	.
=48	=48	=48	=48
4d]	_	1r	.
4r	!	.	.
2r	.	.	.
=49	=49	=49	=49
4r	.	1r	.
8d	'Till	.	.
8d	the	.	.
8f	end	.	.
8d	of	.	.
8d	the	.	.
cq	_	.	.
[8d	day	.	.
=50	=50	=50	=50
4d]	_	1r	.
4r	!	.	.
2r	.	.	.
=51	=51	=51	=51
4r	.	4r	.
8d	'Till	8f	'Till
8d	the	8f	the
8f	end	8a	end
8d	of	8f	of
8d	the	8f	the
cq	_	eq	_
[8d	day	[8f	day
=52	=52	=52	=52
4d]	_	4f]	_
4r	!	4r	!
2r	.	2r	.
=53	=53	=53	=53
4r	.	1r	.
8d	'Till	.	.
8d	the	.	.
8a	end	.	.
8g	of	.	.
8g	the	.	.
eq	_	.	.
[8f	day	.	.
=54	=54	=54	=54
4f]	!	1r	.
16r	.	.	.
8.e	(Grunts)	.	.
4f	_	.	.
4r	.	.	.
=55	=55	=55	=55
1r	.	1r	.
=56	=56	=56	=56
1r	.	1r	.
=57	=57	=57	=57
1r	.	1r	.
=58	=58	=58	=58
1r	.	1r	.
=59	=59	=59	=59
1r	.	1r	.
=60	=60	=60	=60
1r	.	1r	.
=61	=61	=61	=61
1r	.	1r	.
=62	=62	=62	=62
8d	You	1f	Ah
8c#	_	.	.
8d	and	.	.
8c#	_	.	.
8d	me,	.	.
4d	we're	.	.
dq	_	.	.
[8e	free	.	.
=63	=63	=63	=63
4.e]	_	1e	_
8r	!	.	.
2r	.	.	.
=64	=64	=64	=64
4f	We	1f	_
4f	do	.	.
4f	as	.	.
4f	we	.	.
=65	=65	=65	=65
4.e	please,	[2e [g	_
8d	y-	.	.
16e	-yeah	8e] g]	_
16d	_	.	.
8c	,	8r	!
8d	from	4r	.
8c	_	.	.
=66	=66	=66	=66
1r	.	2c f	Mor-
.	.	2d g	-ning
=67	=67	=67	=67
4r	.	2d f	_
8d	'Till	.	.
8d	the	.	.
8e	end	2c# e	!
8d	of	.	.
8d	the	.	.
cq	_	.	.
[8d	day	.	.
=68	=68	=68	=68
4d]	_	1r	.
4r	!	.	.
2r	.	.	.
=69	=69	=69	=69
4r	.	1r	.
8d	'Till	.	.
8d	the	.	.
8f	end	.	.
8d	of	.	.
8d	the	.	.
cq	_	.	.
[8d	day	.	.
=70	=70	=70	=70
4d]	_	1d	Ah
4r	!	.	.
2r	.	.	.
=71	=71	=71	=71
4r	.	1e	_
8d	'Till	.	.
8d	the	.	.
8f a	end	.	.
8d g	of	.	.
8d g	the	.	.
eq	_	.	.
[8f	day	.	.
=72	=72	=72	=72
4f]	_	1d	_
4r	!	.	.
2r	.	.	.
=73	=73	=73	=73
4r	.	1c e	_
8d	'Till	.	.
8d	the	.	.
8f	end	.	.
8d	of	.	.
8d	the	.	.
[8f	day	.	.
=74	=74	=74	=74
4f]	_	1d f	_
4r	!	.	.
2r	.	.	.
=75	=75	=75	=75
4r	.	1c e	_
8d	'Till	.	.
8d	the	.	.
8f g	end	.	.
8d g	of	.	.
8d	the	.	.
[8f	day	.	.
=76	=76	=76	=76
4f]	_	1d f	_
4r	!	.	.
2r	.	.	.
=77	=77	=77	=77
4r	.	1c e	_
8d	'Till	.	.
8d	the	.	.
8f	end	.	.
8d	of	.	.
8d	the	.	.
cq	_	.	.
[8d	day	.	.
=78	=78	=78	=78
1d_	_	1d f	!
=79	=79	=79	=79
1d]	_	1r	.
*-	*-	*-	*-
!!!ENC: Nathaniel Condit-Schultz